X: 53
T:Belfast Hornpipe
M:4/4
L:1/8
Q:180
R:Hornpipe
K:D
a>g|"D"(3faf d>f A>dF>A|D>FA>d f2 e>f|
"G"g>be>c "Em"d>fA>F|"G"G>AB>G "A"E2 a>g|
"D"(3faf d>f A>dF>A|D>FA>d f2 e>f|
"G"(3gag e>d "A"c>AB>c|"D"d2f2d2::
(3DEF|"G"G>FG>A "A"B>cd>e|"D"f>gf>e d>cd>B|
A2f2f>ef2|"A"G2e2e>de>F|
"G"G>FG>A "A"B>cd>e|"D"f>gf>e d>cd>B|
A>fe>d "A"c>AB>c|"D"d>f"A"e>c "D"d2 ::
a>g|"D"(3fgf "A"(3efe "D"(3ded "A"(3cdc|
"G"(3BcB "A"(3ABA "G"G2 b>a|
"G"(3gag "D"(3fgf "A"(3efe "D"(3ded
|"A"(3cdc "G"(3BcB "A"A2 a>g|
"D"(3fgf "A"(3efe "D"(3ded "A"(3cdc|
"G"(3BcB "A"(3ABA "G"(3GAG "D"(3FGF|
"G"E>g e>d "A"c>A B>c|"D"d2 f2 d2:|
